X:126
T:Humours Of Glendart, The
R:jig
S:https://thesession.org/tunes/45
M:6/8
L:1/8
Z:Jeremy
K:Dmajor
|:BAF AFE|FED EFA|BAF AFE|FEE E2A|BAF AFE|FED FAB|
dcB AFE|FDD D2A:|def d2B|ABA AFA|def d2d|
ede fdB|def edB|dBA ABc|dcB AFE|FDD D2A:|

